assets/images/initial.svg

<svg width="153" height="152" viewBox="0 0 153 152" fill="none" xmlns="http://www.w3.org/2000/svg">
<path d="M132.5 2C131.97 2 131.461 2.21071 131.086 2.58579C130.711 2.96086 130.5 3.46957 130.5 4C130.5 4.53043 130.711 5.03914 131.086 5.41421C131.461 5.78929 131.97 6 132.5 6C133.03 6 133.539 5.78929 133.914 5.41421C134.289 5.03914 134.5 4.53043 134.5 4C134.5 3.46957 134.289 2.96086 133.914 2.58579C133.539 2.21071 133.03 2 132.5 2Z" fill="#F9A825"/>
<path d="M76.5 0C56.3435 0 37.0126 8.00712 22.7599 22.2599C8.50712 36.5126 0.5 55.8435 0.5 76C0.5 96.1564 8.50712 115.487 22.7599 129.74C37.0126 143.993 56.3435 152 76.5 152C96.6564 152 115.987 143.993 130.24 129.74C144.493 115.487 152.5 96.1564 152.5 76C152.5 55.8435 144.493 36.5126 130.24 22.2599C115.987 8.00712 96.6564 0 76.5 0Z" fill="#F1F1F6"/>
<path d="M144.5 0C142.378 0 140.343 0.842854 138.843 2.34315C137.343 3.84344 136.5 5.87827 136.5 8C136.5 10.1217 137.343 12.1566 138.843 13.6569C140.343 15.1571 142.378 16 144.5 16C146.622 16 148.657 15.1571 150.157 13.6569C151.657 12.1566 152.5 10.1217 152.5 8C152.5 5.87827 151.657 3.84344 150.157 2.34315C148.657 0.842854 146.622 0 144.5 0Z" fill="#F9A825"/>
<path d="M4.5 24C3.43913 24 2.42172 24.4214 1.67157 25.1716C0.921428 25.9217 0.5 26.9391 0.5 28C0.5 29.0609 0.921428 30.0783 1.67157 30.8284C2.42172 31.5786 3.43913 32 4.5 32C5.56086 32 6.57828 31.5786 7.32842 30.8284C8.07857 30.0783 8.5 29.0609 8.5 28C8.5 26.9391 8.07857 25.9217 7.32842 25.1716C6.57828 24.4214 5.56086 24 4.5 24Z" fill="#F03434"/>
<path d="M132.5 126C131.439 126 130.422 126.421 129.672 127.172C128.921 127.922 128.5 128.939 128.5 130C128.5 131.061 128.921 132.078 129.672 132.828C130.422 133.579 131.439 134 132.5 134C133.561 134 134.578 133.579 135.328 132.828C136.079 132.078 136.5 131.061 136.5 130C136.5 128.939 136.079 127.922 135.328 127.172C134.578 126.421 133.561 126 132.5 126ZM10.5 124C8.37827 124 6.34344 124.843 4.84315 126.343C3.34285 127.843 2.5 129.878 2.5 132C2.5 134.122 3.34285 136.157 4.84315 137.657C6.34344 139.157 8.37827 140 10.5 140C12.6217 140 14.6566 139.157 16.1569 137.657C17.6571 136.157 18.5 134.122 18.5 132C18.5 129.878 17.6571 127.843 16.1569 126.343C14.6566 124.843 12.6217 124 10.5 124Z" fill="#F9A825"/>
<path d="M24.5 138C23.4391 138 22.4217 138.421 21.6716 139.172C20.9214 139.922 20.5 140.939 20.5 142C20.5 143.061 20.9214 144.078 21.6716 144.828C22.4217 145.579 23.4391 146 24.5 146C25.5609 146 26.5783 145.579 27.3284 144.828C28.0786 144.078 28.5 143.061 28.5 142C28.5 140.939 28.0786 139.922 27.3284 139.172C26.5783 138.421 25.5609 138 24.5 138Z" fill="#F03434"/>
<path d="M109.466 128.068C108.814 128.068 108.168 128.196 107.566 128.446C106.963 128.696 106.416 129.061 105.955 129.522C105.493 129.984 105.128 130.531 104.878 131.134C104.628 131.736 104.5 132.382 104.5 133.034C104.5 133.686 104.628 134.332 104.878 134.934C105.128 135.537 105.493 136.084 105.955 136.545C106.416 137.007 106.963 137.372 107.566 137.622C108.168 137.872 108.814 138 109.466 138C110.118 138 110.764 137.872 111.366 137.622C111.969 137.372 112.516 137.007 112.977 136.545C113.439 136.084 113.804 135.537 114.054 134.934C114.304 134.332 114.432 133.686 114.432 133.034C114.432 132.382 114.304 131.736 114.054 131.134C113.804 130.531 113.439 129.984 112.977 129.522C112.516 129.061 111.969 128.696 111.366 128.446C110.764 128.196 110.118 128.068 109.466 128.068ZM8.5 70C7.96957 70 7.46086 70.2107 7.08579 70.5858C6.71071 70.9609 6.5 71.4696 6.5 72C6.5 72.5304 6.71071 73.0391 7.08579 73.4142C7.46086 73.7893 7.96957 74 8.5 74C9.03043 74 9.53914 73.7893 9.91422 73.4142C10.2893 73.0391 10.5 72.5304 10.5 72C10.5 71.4696 10.2893 70.9609 9.91422 70.5858C9.53914 70.2107 9.03043 70 8.5 70Z" fill="white"/>
<path d="M148.5 36C147.97 36 147.461 36.2107 147.086 36.5858C146.711 36.9609 146.5 37.4696 146.5 38C146.5 38.5304 146.711 39.0391 147.086 39.4142C147.461 39.7893 147.97 40 148.5 40C149.03 40 149.539 39.7893 149.914 39.4142C150.289 39.0391 150.5 38.5304 150.5 38C150.5 37.4696 150.289 36.9609 149.914 36.5858C149.539 36.2107 149.03 36 148.5 36Z" fill="#F9A825"/>
<path d="M136.5 104C135.439 104 134.422 104.421 133.672 105.172C132.921 105.922 132.5 106.939 132.5 108C132.5 109.061 132.921 110.078 133.672 110.828C134.422 111.579 135.439 112 136.5 112C137.561 112 138.578 111.579 139.328 110.828C140.079 110.078 140.5 109.061 140.5 108C140.5 106.939 140.079 105.922 139.328 105.172C138.578 104.421 137.561 104 136.5 104Z" fill="white"/>
<path d="M64.8333 72.6667H43.1666V52.2033C43.1666 51.5417 43.7083 51 44.37 51H63.63C64.2916 51 64.8333 51.5417 64.8333 52.2033V72.6667Z" fill="url(#paint0_linear)"/>
<path d="M50.99 51H57.0083V54.01H50.99V51Z" fill="#FFF8E6"/>
<path d="M109.833 96C109.833 101.522 105.355 106 99.8334 106C94.3117 106 89.8334 101.522 89.8334 96C89.8334 90.4783 94.3117 86 99.8334 86C105.355 86 109.833 90.4783 109.833 96Z" fill="#586169"/>
<path d="M104.833 96C104.833 98.7617 102.597 101 99.8334 101C97.07 101 94.8334 98.7633 94.8334 96C94.8334 93.2367 97.07 91 99.8334 91C102.597 91 104.833 93.2367 104.833 96Z" fill="#999999"/>
<path d="M100.67 81C93.765 81 88.1666 86.97 88.1666 94.3333H111.458C112.42 94.3333 113.182 93.4233 113.045 92.4067C112.17 85.9567 106.963 81 100.67 81Z" fill="#FA3E3E"/>
<path d="M66.5 96C66.5 101.522 62.0217 106 56.5 106C50.9783 106 46.5 101.522 46.5 96C46.5 90.4783 50.9783 86 56.5 86C62.0217 86 66.5 90.4783 66.5 96Z" fill="#586169"/>
<path d="M61.5 96C61.5 98.7617 59.2633 101 56.5 101C53.7367 101 51.5 98.7633 51.5 96C51.5 93.2367 53.7367 91 56.5 91C59.2633 91 61.5 93.2367 61.5 96Z" fill="#999999"/>
<path d="M92.3333 56H97.7733C98.9117 56 99.8333 55.0784 99.8333 53.94V46.3934C99.8333 45.255 98.9117 44.3334 97.7733 44.3334H92.3333C89.1117 44.3334 86.5 46.945 86.5 50.1667C86.5 53.3884 89.1117 56 92.3333 56Z" fill="#FA3E3E"/>
<path d="M93.1667 56H89.8333H83.1667V59.3333H89.2533L84.1567 88.6433C84.0867 89.0417 83.7417 89.3333 83.335 89.3333H73.4817C73.1367 89.3333 72.8283 89.1217 72.7033 88.7983L66.91 73.735C66.6633 73.0917 66.045 72.6667 65.355 72.6667H51.5C45.5367 75.6483 40.9083 82.63 39.9967 91.225C39.82 92.8933 41.18 94.3333 42.8583 94.3333H86.5H89.8333L103.167 81C102.557 72.7967 98.1667 61 93.1667 56Z" fill="url(#paint1_linear)"/>
<path d="M78.1667 59.3333H83.1667V56H78.1667C77.2467 56 76.5 56.7467 76.5 57.6667C76.5 58.5867 77.2467 59.3333 78.1667 59.3333Z" fill="#565B5E"/>
<path d="M42.3333 76H67.785L66.9117 73.7333C66.6633 73.09 66.045 72.6666 65.3567 72.6666H42.3333C41.8733 72.6666 41.5 73.04 41.5 73.5V75.1666C41.5 75.6266 41.8733 76 42.3333 76Z" fill="#F03434"/>
<defs>
<linearGradient id="paint0_linear" x1="43.5883" y1="51.4717" x2="64.245" y2="72.7417" gradientUnits="userSpaceOnUse">
<stop stop-color="#FFD869"/>
<stop offset="1" stop-color="#FEC52B"/>
</linearGradient>
<linearGradient id="paint1_linear" x1="39.9817" y1="75.1667" x2="103.167" y2="75.1667" gradientUnits="userSpaceOnUse">
<stop stop-color="#F03434"/>
<stop offset="1" stop-color="#D93030"/>
</linearGradient>
</defs>
</svg>

<svg width="153" height="152" fill="none" xmlns="http://www.w3.org/2000/svg"><path d="M132.5 2a2 2 0 1 0 0 4 2 2 0 0 0 0-4Z" fill="#F9A825"/><path d="M76.5 0a76 76 0 1 0 0 152 76 76 0 0 0 0-152Z" fill="#F1F1F6"/><path d="M144.5 0a8 8 0 1 0 0 15.999A8 8 0 0 0 144.5 0Z" fill="#F9A825"/><path d="M4.5 24a4 4 0 1 0 0 8 4 4 0 0 0 0-8Z" fill="#F03434"/><path d="M132.5 126a3.995 3.995 0 0 0-2.828 1.172 3.995 3.995 0 0 0 0 5.656 3.995 3.995 0 0 0 5.656 0 3.995 3.995 0 0 0 0-5.656A3.995 3.995 0 0 0 132.5 126Zm-122-2a8.001 8.001 0 1 0 0 16.002 8.001 8.001 0 0 0 0-16.002Z" fill="#F9A825"/><path d="M24.5 138a3.997 3.997 0 0 0-4 4 3.998 3.998 0 0 0 6.828 2.828A3.998 3.998 0 0 0 24.5 138Z" fill="#F03434"/><path d="M109.466 128.068a4.954 4.954 0 0 0-3.511 1.454 4.968 4.968 0 0 0 0 7.023 4.954 4.954 0 0 0 3.511 1.455 4.954 4.954 0 0 0 3.511-1.455 4.954 4.954 0 0 0 1.455-3.511 4.954 4.954 0 0 0-1.455-3.512 4.967 4.967 0 0 0-3.511-1.454ZM8.5 70a2 2 0 1 0 0 4 2 2 0 0 0 0-4Z" fill="#fff"/><path d="M148.5 36a2 2 0 1 0 0 4 2 2 0 0 0 0-4Z" fill="#F9A825"/><path d="M136.5 104a3.995 3.995 0 0 0-2.828 1.172 3.995 3.995 0 0 0 0 5.656 3.995 3.995 0 0 0 5.656 0 3.995 3.995 0 0 0 0-5.656A3.995 3.995 0 0 0 136.5 104Z" fill="#fff"/><path d="M64.833 72.667H43.167V52.203c0-.661.541-1.203 1.203-1.203h19.26c.662 0 1.203.542 1.203 1.203v20.464Z" fill="url(#a)"/><path d="M50.99 51h6.018v3.01H50.99V51Z" fill="#FFF8E6"/><path d="M109.833 96c0 5.522-4.478 10-10 10-5.521 0-10-4.478-10-10s4.479-10 10-10c5.522 0 10 4.478 10 10Z" fill="#586169"/><path d="M104.833 96c0 2.762-2.236 5-5 5-2.763 0-5-2.237-5-5s2.237-5 5-5c2.764 0 5 2.237 5 5Z" fill="#999"/><path d="M100.67 81c-6.905 0-12.503 5.97-12.503 13.333h23.291c.962 0 1.724-.91 1.587-1.926C112.17 85.957 106.963 81 100.67 81Z" fill="#FA3E3E"/><path d="M66.5 96c0 5.522-4.478 10-10 10s-10-4.478-10-10 4.478-10 10-10 10 4.478 10 10Z" fill="#586169"/><path d="M61.5 96c0 2.762-2.237 5-5 5s-5-2.237-5-5 2.237-5 5-5 5 2.237 5 5Z" fill="#999"/><path d="M92.333 56h5.44a2.06 2.06 0 0 0 2.06-2.06v-7.547a2.06 2.06 0 0 0-2.06-2.06h-5.44a5.833 5.833 0 1 0 0 11.667Z" fill="#FA3E3E"/><path d="M93.167 56h-10v3.333h6.086l-5.096 29.31a.834.834 0 0 1-.822.69h-9.853a.834.834 0 0 1-.779-.535L66.91 73.735a1.665 1.665 0 0 0-1.555-1.068H51.5c-5.963 2.981-10.592 9.963-11.503 18.558-.177 1.668 1.183 3.108 2.861 3.108h46.975L103.167 81c-.61-8.203-5-20-10-25Z" fill="url(#b)"/><path d="M78.167 59.333h5V56h-5a1.667 1.667 0 0 0 0 3.333Z" fill="#565B5E"/><path d="M42.333 76h25.452l-.873-2.267a1.667 1.667 0 0 0-1.555-1.066H42.333a.834.834 0 0 0-.833.833v1.667c0 .46.373.833.833.833Z" fill="#F03434"/><defs><linearGradient id="a" x1="43.588" y1="51.472" x2="64.245" y2="72.742" gradientUnits="userSpaceOnUse"><stop stop-color="#FFD869"/><stop offset="1" stop-color="#FEC52B"/></linearGradient><linearGradient id="b" x1="39.982" y1="75.167" x2="103.167" y2="75.167" gradientUnits="userSpaceOnUse"><stop stop-color="#F03434"/><stop offset="1" stop-color="#D93030"/></linearGradient></defs></svg>
